X:1
T:Title
%%score 1 ( 2 3 4 ) { ( 5 7 ) | ( 6 8 ) }
L:1/8
Q:1/4=155
M:4/4
K:G
V:1 treble nm="Church Organ, Staff-1"
V:2 treble nm="Grand Piano, Right Hand"
V:3 treble 
V:4 treble 
V:5 bass nm="Grand Piano, Left Hand"
V:7 bass 
V:6 bass 
V:8 bass 
V:1
 z8 | z8 | z8 | z8 | z8 | z8 | z8 | z8 | G2 F2 E4 | E4 E2 D2 | E2 F2 G4 | G4 A4 | G2 A2 B2 B2 | %13
w: ||||||||As~ * it~|fell~ out~ *|up * on~|a~ day,~|Rich~ * Di ver|
 B2 B2 A2 G2 | E4 D4- | D8 | G2 F2 E4 | E4 E2 D2 | E2 F2 G4 | G4 A4 | G2 A2 B4 | B4 A2 G2 | %22
w: us~ he~ made~ *|a~ feast,~||And~ * he~|in vit *|ed~ * all~|his~ friends,~|And~ * gen|try~ of~ *|
 E4 E4- | E8 | B2 c2 d4 | B4 B4 | A2 G2 A4 | A4 B4 | G2 A2 B2 B2 | A2 G2 A2 G2 | E4 D4- | D8 | %32
w: the~ best.~||As~ * it~|fell~ out~|up * on~|a~ day,~|Poor~ * La za|rus~ he~ ws~ *|so~ poor~||
 G2 F2 E4 | E4 E2 D2 | E2 F2 G4 | G4 A4 | G2 A2 B4- | B2 B2 A2 G2 | E4 E4- | E8 | B2 c2 d4 | %41
w: He~ * came~|and~ laid~ *|him~ * down~|and~ down~|Ev'n~ * down~|* at~ Di ver|us'~ door~||As~ * it~|
 B4 B4 | A2 G2 A4 | A4 B4 | G2 A2 B2 B2 | A2 G2 A2 G2 | E4 D4- | D8 | G2 F2 E4 | E4 E2 D2 | %50
w: fell~ out~|up * on~|a~ day,~|Poor~ * La za|rus~ he~ ws~ *|so~ poor~||He~ * came~|and~ laid~ *|
 E2 F2 G4 | G4 A4 | G2 A2 B4- | B2 B2 A2 G2 | E4 E4- | E8 |] %56
w: him~ * down~|and~ down~|Ev'n~ * down~|* at~ Di ver|us'~ door~||
V:2
 G2 F2 E4 | z4 E2 z2 | z8 | z8 | z4 B4 | z8 | z8 | z8 | G2 F2 E4- | [CE]8 | E2 z2 z4 | z8 | z4 G4 | %13
w: By~English~Traditional * *|||||||||||||
 z4 z2 G2 | z4 D4- | D8 | G2 F2 [DE]4 | E2- [B,E-]2 [CE]4 | E2 F2 [EG]4- | [EG]4 A4 | G2 A2 B4- | %21
w: ||||||||
 [EB]4 A2 G2 | E4 z4 | z8 | z8 | z8 | z8 | z8 | z8 | z8 | z4[K:bass] D4- | D8 | z4[K:treble] D4 | %33
w: ||||||||||||
 z8 | [A,C]4 [G,B,]4- | [G,B,]4 [A,D]4- | [A,D]4 [B,G]4- | [B,G]4 [A,E]4- | [A,E]4 E4- | E8 | %40
w: |||||||
 z4 D4- | D4 B,4- | B,4 [A,D]4- | [A,D]4 [B,D]4- | [B,D]4 G4- | G4 E4 | z4 D4- | D8 | D4 z4 | z8 | %50
w: ||||||||||
 z8[K:bass] | z8 | z8 | z8 | z8 | z8 |] %56
w: ||||||
V:3
 x8 | E2 D2 C2- [CD]2 | C2- [CF]2 [EG]4- | [EG]2 A2 [GB]4 | [DAd]4 [DA]4- | [DGAB]4 A2 G2 | %6
 E4 [B,E]4- | [B,E]8 | B,4 D4 | x8 | C2- [CF]2 [B,DG]4- | [B,DG]4 [A,DF]4- | [A,DF]4 D4- | %13
 [DB]4 [CA]2 D2- | [DE]2 [CE]2 C4 | B,2 G,2 B,4 | D4 z4 | C2 z2 z4 | C4 z4 | z4 E4- | E4 ^D4 | %21
 z4 E4 | D2 C2 E4- | E8 | z4 [B,D]4- | [B,D]4 [B,E]4- | [B,E]4 [A,E]4- | [A,E]4 [B,^D]4- | %28
 [B,D]4 [B,E]4- | [B,E]4 [CE]4- | [CE]4[K:bass] B,4- | B,2 A,2 G,4 | D4[K:treble] E4- | %33
 [CE-]2 [B,E-]2 [CE]4 | x8 | x8 | x8 | x8 | x8 | x8 | x8 | x8 | x8 | x8 | z4 D4- | D8 | [CE]4 C4 | %47
 B,2 A,2 B,4 | G2 F2 [CE]4- | [CE]4 [CE]4- | [CE]4[K:bass] [B,E]4- | [B,E]4 [A,D]4- | [A,D]4 B,4- | %53
 B,4 A,4- | A,4 G,4- | G,8 |] %56
V:4
 x8 | x8 | E2 z2 z4 | z2 E6- | E6 z2 | z4 [C-E]4 | C4 z4 | x8 | x8 | x8 | x8 | x8 | x8 | x8 | x8 | %15
 x8 | x8 | x8 | x8 | x8 | x8 | x8 | x8 | x8 | x8 | x8 | x8 | x8 | x8 | x8 | x4[K:bass] x4 | x8 | %32
 x4[K:treble] x4 | x8 | x8 | x8 | x8 | x8 | x8 | x8 | x8 | x8 | x8 | x8 | x8 | x8 | x8 | x8 | x8 | %49
 x8 | x4[K:bass] x4 | x8 | x8 | x8 | x8 | x8 |] %56
V:5
 z8 | z4 C2 B,2 | z4 B,4- | B,8 | A,4 B,4- | B,4 A,4- | A,4 G,4- | G,8 | G,4 G,4- | G,8 | %10
 A,4 D,4- | D,4 D,4- | D,4 G,4 | G,,4 E,4- | E,4 [D,G,]4- | [D,G,]8 | G,4 G,4- | G,8 | A,4 B,4- | %19
 B,4 E,4- | E,4 F,4 | G,4 A,4 | A,4 [G,B,]4 | G,2 A,2 B,4 | z4 F,4- | F,4 G,4- | G,4 A,4- | %27
 A,4 F,4- | F,4 G,4- | G,4 G,4- | G,2 A,2 D,4- | D,8 | G,4 G,4- | G,4 A,4 | E,4 E,4- | E,4 D,4- | %36
 D,4 D,4- | D,4 C,4- | C,4 G,4- | G,8 | z4 F,4- | F,4 G,4- | G,4 D,4- | D,4 D,4- | D,4 D,4 | %45
 G,4 G,4 | G,4 G,4 | G,,8 | G,4 G,4- | G,4 A,4- | A,4 G,4- | G,4 D,4- | D,4 A,4 | G,4 E,4- | %54
 E,4 E,4- | E,8 |] %56
V:6
 z8 | z8 | z4 G,4- | G,2 F,2 E,4 | [F,,D,]4 [F,,D,]4- | [F,,D,]4 A,,4- | A,,4 [E,,B,,]4- | %7
 [E,,B,,]8 | [G,,D,]4 C,4- | C,8 | A,,4 G,,4- | G,,4 z4 | z8 | z4 G,,2 A,,2 | B,,4 G,,4- | G,,8 | %16
 B,,4 C,4- | C,8 | A,,4 E,4- | E,4 C,4- | C,4 B,,4 | E,4 C,4 | A,,4 z4 | E,2 F,2 G,4 | z4 B,,4- | %25
 B,,4 E,4- | E,4 C,4- | C,4 B,,4- | B,,4 E,4- | E,4 C,4- | C,4 G,,4- | G,,2 A,,2 B,,4 | B,,4 C,4- | %33
 C,4 A,,4 | A,,4 E,,4- | E,,4 F,,4- | F,,4 G,,4- | G,,4 A,,4- | A,,4 [E,,B,,]4- | [E,,B,,]8 | %40
 z4 [B,,D,]4- | [B,,D,]4 [E,,E,]4- | [E,,E,]4 F,,4- | F,,4 G,,4- | G,,4 G,,4 | B,,4 C,4 | E,4 z4 | %47
 z8 | B,,4 C,4- | C,4 A,,4- | A,,4 E,,4- | E,,4 F,,4- | F,,4 G,,4- | G,,4 [A,,C,]4- | %54
 [A,,C,]4 [E,,B,,]4- | [E,,B,,]8 |] %56
V:7
 x8 | x8 | A,4 z4 | z2 A,2 G,4 | x8 | x8 | x8 | x8 | x8 | x8 | x8 | x8 | x8 | x8 | x8 | x8 | x8 | %17
 x8 | x8 | x8 | x8 | x8 | x8 | x8 | x8 | x8 | x8 | x8 | x8 | x8 | x8 | x8 | x8 | x8 | x8 | x8 | %36
 x8 | x8 | x8 | x8 | x8 | x8 | x8 | x8 | x8 | x8 | x8 | x8 | x8 | x8 | x8 | x8 | x8 | x8 | x8 | %55
 x8 |] %56
V:8
 x8 | x8 | x8 | x8 | x8 | x8 | x8 | x8 | x8 | x8 | x8 | x8 | x8 | x8 | x8 | x8 | x8 | x8 | x8 | %19
 x8 | x8 | x8 | z4 E,,4- | E,,8 | x8 | x8 | x8 | x8 | x8 | x8 | x8 | x8 | x8 | x8 | x8 | x8 | x8 | %37
 x8 | x8 | x8 | x8 | x8 | x8 | x8 | x8 | x8 | x8 | x8 | x8 | x8 | x8 | x8 | x8 | x8 | x8 | x8 |] %56

